X: 87
M: C
L: 1/8
K: G
[|\
(cB) (AG) E2 (D>E) | G2 G2 e2 (dB) | {B2}d4 G2 z2 |]
d2 (ed) B2 (eB) | (cB) (AG) {G}E2 zd |
d2 (ed) {c}B2 AG | A2 B2 e2 ze | d2 (ef)
g2 (Bd) | cB (AG) {G}E2 DE | G2 G2 e2 dB |
{B2}d4 G2 z2 |]

